X: 7263
T: Clare's
R: reel
M: 4/4
K: Bminor
F3 B f2 ed|GBdf edBd|e4 edBd|f4 edBG|
F3 B f2 ed|GBdf edBd|e4 edB/c/d|aggf fdA/G/F/E/|
F3 B f2 ed|GBdf edBd|e4 edBd|f4 edBG|
F3 B f2 ed|GBdf edBd|e4 edB/c/d|adfa df a2||
b4 FBdb-|bggf GBdf|e2ed B/c/deg|f2 fe edB/c/d|
ba b2 FBdb-|bggf GBdf|e2ed B/c/dec|FGcF Gc3||

